icon/ir/soccer-ball.svg

<svg stroke-width="1.5" viewBox="0 0 24 24" fill="none" xmlns="http://www.w3.org/2000/svg" height="1em" width="1em">
  <path d="M12 8L15.8043 10.7639M12 8L8.1958 10.7639M12 8V5M15.8043 10.7639L14.3512 15.2361M15.8043 10.7639L18.5 9.5M14.3512 15.2361H9.64889M14.3512 15.2361L16 17.5M9.64889 15.2361L8.1958 10.7639M9.64889 15.2361L8 17.5M8.1958 10.7639L5.5 9.5M5.5 9.5L2.04938 13M5.5 9.5L4.5 5.38544M18.5 9.5L21.9506 13M18.5 9.5L19.5 5.38544M12 5L8.62434 2.58409M12 5L15.3757 2.58409M8 17.5L3.33782 17M8 17.5L10.5 21.8883M16 17.5L20.6622 17M16 17.5L13.5 21.8883M22 12C22 17.5228 17.5228 22 12 22C6.47715 22 2 17.5228 2 12C2 6.47715 6.47715 2 12 2C17.5228 2 22 6.47715 22 12Z" stroke="currentColor" stroke-linecap="round" stroke-linejoin="round"/>
</svg>

<svg width="24" height="24" stroke-width="1.5" fill="none" xmlns="http://www.w3.org/2000/svg"><path d="m12 8 3.804 2.764M12 8l-3.804 2.764M12 8V5m3.804 5.764-1.453 4.472m1.453-4.472L18.5 9.5m-4.149 5.736H9.65m4.702 0L16 17.5m-6.351-2.264-1.453-4.472m1.453 4.472L8 17.5m.196-6.736L5.5 9.5m0 0L2.05 13M5.5 9.5l-1-4.115m14 4.115 3.45 3.5M18.5 9.5l1-4.115M12 5 8.624 2.584M12 5l3.376-2.416M8 17.5 3.338 17M8 17.5l2.5 4.388M16 17.5l4.662-.5M16 17.5l-2.5 4.388M22 12c0 5.523-4.477 10-10 10S2 17.523 2 12 6.477 2 12 2s10 4.477 10 10Z" stroke="currentColor" stroke-linecap="round" stroke-linejoin="round"/></svg>
